cssgg/chevron-double-right-r.svg

<svg
  width="24"
  height="24"
  viewBox="0 0 24 24"
  fill="none"
  xmlns="http://www.w3.org/2000/svg"
>
  <path
    d="M8.46448 7.75739L7.05026 9.1716L9.87869 12L7.05029 14.8284L8.46451 16.2426L12.7071 12L8.46448 7.75739Z"
    fill="currentColor"
  />
  <path
    d="M11.2929 9.1716L12.7071 7.75739L16.9498 12L12.7071 16.2426L11.2929 14.8284L14.1213 12L11.2929 9.1716Z"
    fill="currentColor"
  />
  <path
    fill-rule="evenodd"
    clip-rule="evenodd"
    d="M23 5C23 2.79086 21.2091 1 19 1H5C2.79086 1 1 2.79086 1 5V19C1 21.2091 2.79086 23 5 23H19C21.2091 23 23 21.2091 23 19V5ZM19 3H5C3.89543 3 3 3.89543 3 5V19C3 20.1046 3.89543 21 5 21H19C20.1046 21 21 20.1046 21 19V5C21 3.89543 20.1046 3 19 3Z"
    fill="currentColor"
  />
</svg>

<svg viewBox="0 0 24 24" xmlns="http://www.w3.org/2000/svg"><g><path d="M8.46 7.75L7.04 9.16l2.82 2.82 -2.83 2.82 1.41 1.41 4.24-4.25 -4.25-4.25Z"/><path d="M11.29 9.17l1.41-1.42 4.24 4.24 -4.25 4.24 -1.42-1.42 2.82-2.83 -2.83-2.83Z"/><path fill-rule="evenodd" d="M23 5c0-2.21-1.8-4-4-4H5C2.79 1 1 2.79 1 5v14c0 2.2 1.79 4 4 4h14c2.2 0 4-1.8 4-4V5Zm-4-2H5c-1.11 0-2 .89-2 2v14c0 1.1.89 2 2 2h14c1.1 0 2-.9 2-2V5c0-1.11-.9-2-2-2Z"/></g></svg>
